wp-content/themes/julialandauer/images/social/facebook.svg

<?xml version="1.0" encoding="utf-8"?>
<!-- Generated by IcoMoon.io -->
<!DOCTYPE svg PUBLIC "-//W3C//DTD SVG 1.1//EN" "http://www.w3.org/Graphics/SVG/1.1/DTD/svg11.dtd">
<svg version="1.1" xmlns="http://www.w3.org/2000/svg" xmlns:xlink="http://www.w3.org/1999/xlink" width="16" height="16" viewBox="0 0 16 16">
<path d="M8 0c-4.418 0-8 3.582-8 8s3.582 8 8 8v-6h-2v-2h2v-1.5c0-1.381 1.119-2.5 2.5-2.5h2.5v2h-2.5c-0.276 0-0.5 0.224-0.5 0.5v1.5h2.75l-0.5 2h-2.25v5.748c3.45-0.888 6-4.020 6-7.748 0-4.418-3.582-8-8-8z" fill="#ffffff"></path>
</svg>

<svg xmlns="http://www.w3.org/2000/svg" width="16" height="16" viewBox="0 0 16 16"><path d="M8 0C3.582 0 0 3.582 0 8s3.582 8 8 8v-6H6V8h2V6.5C8 5.12 9.12 4 10.5 4H13v2h-2.5c-.276 0-.5.224-.5.5V8h2.75l-.5 2H10v5.748c3.45-.888 6-4.02 6-7.748 0-4.418-3.582-8-8-8z" fill="#fff"/></svg>
